assets/icons/openInNew.svg

<svg width="24" height="24" viewBox="0 0 24 24" fill="none" xmlns="http://www.w3.org/2000/svg">
<path d="M5.77778 20C5.28889 20 4.87037 19.8259 4.52222 19.4778C4.17407 19.1296 4 18.7111 4 18.2222V5.77778C4 5.28889 4.17407 4.87037 4.52222 4.52222C4.87037 4.17407 5.28889 4 5.77778 4H11.1111C11.363 4 11.5741 4.08519 11.7444 4.25556C11.9148 4.42593 12 4.63704 12 4.88889C12 5.14074 11.9148 5.35185 11.7444 5.52222C11.5741 5.69259 11.363 5.77778 11.1111 5.77778H5.77778V18.2222H18.2222V12.8889C18.2222 12.637 18.3074 12.4259 18.4778 12.2556C18.6481 12.0852 18.8593 12 19.1111 12C19.363 12 19.5741 12.0852 19.7444 12.2556C19.9148 12.4259 20 12.637 20 12.8889V18.2222C20 18.7111 19.8259 19.1296 19.4778 19.4778C19.1296 19.8259 18.7111 20 18.2222 20H5.77778ZM18.2222 7.02222L10.5778 14.6667C10.4148 14.8296 10.2074 14.9111 9.95556 14.9111C9.7037 14.9111 9.4963 14.8296 9.33333 14.6667C9.17037 14.5037 9.08889 14.2963 9.08889 14.0444C9.08889 13.7926 9.17037 13.5852 9.33333 13.4222L16.9778 5.77778H14.6667C14.4148 5.77778 14.2037 5.69259 14.0333 5.52222C13.863 5.35185 13.7778 5.14074 13.7778 4.88889C13.7778 4.63704 13.863 4.42593 14.0333 4.25556C14.2037 4.08519 14.4148 4 14.6667 4H19.1111C19.363 4 19.5741 4.08519 19.7444 4.25556C19.9148 4.42593 20 4.63704 20 4.88889V9.33333C20 9.58519 19.9148 9.7963 19.7444 9.96667C19.5741 10.137 19.363 10.2222 19.1111 10.2222C18.8593 10.2222 18.6481 10.137 18.4778 9.96667C18.3074 9.7963 18.2222 9.58519 18.2222 9.33333V7.02222Z" fill="black"/>
</svg>

<svg xmlns="http://www.w3.org/2000/svg" width="24" height="24" fill="none">
  <path fill="#000"
    d="M5.78 20c-.5 0-.91-.17-1.26-.52A1.71 1.71 0 0 1 4 18.22V5.78c0-.5.17-.91.52-1.26A1.71 1.71 0 0 1 5.78 4h5.33a.86.86 0 0 1 .63.26.86.86 0 0 1 .26.63.86.86 0 0 1-.26.63.86.86 0 0 1-.63.26H5.78v12.44h12.44V12.9a.86.86 0 0 1 .26-.63.86.86 0 0 1 .63-.26.86.86 0 0 1 .63.26.86.86 0 0 1 .26.63v5.33c0 .5-.17.91-.52 1.26a1.71 1.71 0 0 1-1.26.52H5.78ZM18.22 7.02l-7.64 7.65a.84.84 0 0 1-.62.24.84.84 0 0 1-.63-.24.84.84 0 0 1-.24-.63c0-.25.08-.45.24-.62l7.65-7.64h-2.31a.86.86 0 0 1-.64-.26.86.86 0 0 1-.25-.63.86.86 0 0 1 .25-.63.86.86 0 0 1 .64-.26h4.44a.86.86 0 0 1 .63.26.86.86 0 0 1 .26.63v4.44a.86.86 0 0 1-.26.64.86.86 0 0 1-.63.25.86.86 0 0 1-.63-.25.86.86 0 0 1-.26-.64v-2.3Z" />
</svg>
